!!!COM:	Bach, Johann Sebastian
!!!CDT:	1685/02/21/-1750/07/28/
!!!OTL@@DE:	Freu dich sehr, o meine Seele
!!!SCT:	BWV 30/6
!!!PC#:	76
!!!AGN:	chorale
**harm	**kern	**kern	**kern	**kern
*	*ICvox	*ICvox	*ICvox	*ICvox
*	*Ibass	*Itenor	*Ialto	*Isoprn
*	*I"Bass	*I"Tenor	*I"Alto	*I"Soprano
*>[A,A,B]	*>[A,A,B]	*>[A,A,B]	*>[A,A,B]	*>[A,A,B]
*>norep[A,B]	*>norep[A,B]	*>norep[A,B]	*>norep[A,B]	*>norep[A,B]
*>A	*>A	*>A	*>A	*>A
*	*	*oclefC4	*oclefC3	*oclefC1
*	*clefF4	*clefGv2	*clefG2	*clefG2
*k[f#]	*k[f#]	*k[f#]	*k[f#]	*k[f#]
*G:	*G:	*G:	*G:	*G:
*M4/4	*M4/4	*M4/4	*M4/4	*M4/4
*met(c)	*met(c)	*met(c)	*met(c)	*met(c)
*MM100	*MM100	*MM100	*MM100	*MM100
=1-	=1-	=1-	=1-	=1-
I	4GG	4B	4d	4g
V6	4FF#	4d	4d	4a
I	4GG	4d	4g	4b
D:V	4AA	4e	4c#	4a
=2	=2	=2	=2	=2
IV6	8BBL	8BL	8dL	8gL
V65	8C#J	8AJ	8eJ	8gJ
I	4D	4A	4d	4f#
ii65	4GG	4B	4d	4e
V7	4AA	4G	4c#	4e
=3	=3	=3	=3	=3
I;	2DD;	2F#;	2A;	2d;
G:vi	4EE	4B	4e	4g
V6	4FF#	4A	4d	4a
=4	=4	=4	=4	=4
I	4GG	4G	4d	4b
viio6	4AA	4F#	4a	4cc
I6	4BB	4d	4g	4b
V7	4D	4c	4f#	4a
=5	=5	=5	=5	=5
I;	1GG;	1B;	1d;	1g;
=6:|!	=6:|!	=6:|!	=6:|!	=6:|!
*>B	*>B	*>B	*>B	*>B
I	4GG	4d	4g	4b
a:VI6	4AA	4A	4f	4cc
viio65	4BB	4G#	4f	4dd
i6	4C	4A	4e	4cc
=7	=7	=7	=7	=7
V	4E	4e	4g#	4b
iv6	4F	4d	4a	4a
V;	2E;	2G#;	2e;	2b;
=8	=8	=8	=8	=8
C:V6	4BB	4GnX	4d	4dd
V7	4GG	4B	4f	4dd
vi6	4C	4A	4e	4ee
G:V	4D	4A	4f#	4dd
=9	=9	=9	=9	=9
IV65	8EL	8BL	8gL	8ccL
V65	8F#J	8AJ	8dJ	8ccJ
I	8GL	8BL	8dL	8bL
vii%43/V	8GJ	8c#J	8e	8bJ
V;	2D;	2d;	2f#;	2a;
=10	=10	=10	=10	=10
I	4G	4d	4g	4b
I	4G	4d	4g	4dd
IV6	4E	4G	4g	4cc
e:V65	4D#	4B	4f#	4a
=11	=11	=11	=11	=11
i	4E	4B	4e	4g
iv6	4C	4c	4e	4a
i6	4GG	4e	4g	4b
V	4BB	4d#	4f#	4b
=12	=12	=12	=12	=12
i;	2EE;	2B;	2e;	2g;
a:V	4EE	4e	4g#	4b
IV6	8FF#L	8AL	8aL	8ddL
V65	8GG#J	8BJ	8eJ	8ddJ
=13	=13	=13	=13	=13
i	8AAL	8cL	8eL	8ccL
G:viio6	8AAJ	8cJ	8f#J	8ccJ
I6	4BB	4d	4gnX	4b
V	8DL	8dL	8f#L	8aL
V2	8CJ	8dJ	8f#J	8aJ
I6	4BB	4d	4g	4b
=14	=14	=14	=14	=14
V(54)	4D	4d	4g	4a
V7	4D	4c	4f#	4a
I;	2GG;	2B;	2d;	2g;
==	==	==	==	==
*-	*-	*-	*-	*-
!!!YOR1: 371 vierstimmige Choralges&auml;nge von Johann Sebastian Bach, 
!!!YOR2: 4th ed. by Alfred D&ouml;rffel (Leipzig: Breitkopf und H&auml;rtel, 
!!!YOR2: c.1875). 178 pp. Plate "V.A.10".  reprint: J.S. Bach, 371 Four-Part 
!!!YOR4: Chorales (New York: Associated Music Publishers, Inc., c.1940).
!!!SMS: B&H, 4th ed, Alfred D&ouml;rffel, c.1875, plate V.A.10
!!!EED:  Craig Stuart Sapp
!!!EEV:  2009/05/22
